Numix-GalliumOS/64/categories/preferences-system-network.svg

<?xml version="1.0" encoding="UTF-8" standalone="no"?>
<svg
   xmlns:dc="http://purl.org/dc/elements/1.1/"
   xmlns:cc="http://creativecommons.org/ns#"
   xmlns:rdf="http://www.w3.org/1999/02/22-rdf-syntax-ns#"
   xmlns:svg="http://www.w3.org/2000/svg"
   xmlns="http://www.w3.org/2000/svg"
   xmlns:sodipodi="http://sodipodi.sourceforge.net/DTD/sodipodi-0.dtd"
   xmlns:inkscape="http://www.inkscape.org/namespaces/inkscape"
   width="64"
   height="64"
   viewBox="0 0 64 64"
   id="svg2"
   version="1.1"
   inkscape:version="0.91 r"
   sodipodi:docname="preferences-system-network.svg">
  <metadata
     id="metadata18">
    <rdf:RDF>
      <cc:Work
         rdf:about="">
        <dc:format>image/svg+xml</dc:format>
        <dc:type
           rdf:resource="http://purl.org/dc/dcmitype/StillImage" />
      </cc:Work>
    </rdf:RDF>
  </metadata>
  <defs
     id="defs16" />
  <sodipodi:namedview
     pagecolor="#ffffff"
     bordercolor="#666666"
     borderopacity="1"
     objecttolerance="10"
     gridtolerance="10"
     guidetolerance="10"
     inkscape:pageopacity="0"
     inkscape:pageshadow="2"
     inkscape:window-width="1920"
     inkscape:window-height="1056"
     id="namedview14"
     showgrid="true"
     inkscape:zoom="3.6875"
     inkscape:cx="29.7095"
     inkscape:cy="-14.132326"
     inkscape:window-x="0"
     inkscape:window-y="24"
     inkscape:window-maximized="1"
     inkscape:current-layer="svg2">
    <inkscape:grid
       type="xygrid"
       id="grid4146" />
  </sodipodi:namedview>
  <path
     style="fill:#c0956e"
     inkscape:connector-curvature="0"
     id="path6"
     d="m 22.480398,11 c -0.806747,0.0826 -1.484414,0.822025 -1.48038,1.612586 l 0,12.774827 C 21.000018,26.233038 21.786596,27 22.653849,27 l 18.692319,0 C 42.213421,27 43,26.233038 43,25.387413 L 43,12.612586 C 43,11.766961 42.213421,11 41.346168,11 Z" />
  <path
     style="fill:#c0956e"
     inkscape:connector-curvature="0"
     id="path8"
     d="m 9.480381,37 c -0.8067467,0.08262 -1.4844139,0.818294 -1.4803804,1.609049 l 0,12.781903 C 8.0000006,52.23285 8.7865788,53 9.6538307,53 l 18.6923203,0 c 0.867253,0 1.653832,-0.76715 1.653832,-1.609048 l 0,-12.781903 C 29.999983,37.767151 29.213404,37 28.346151,37 Z" />
  <path
     style="fill:#c0956e"
     inkscape:connector-curvature="0"
     id="path10"
     d="m 36.480397,37 c -0.806747,0.08261 -1.484414,0.818294 -1.480379,1.609049 l 0,12.781903 C 35.000018,52.23285 35.786596,53 36.649814,53 l 18.696355,0 C 56.209388,53 57,52.23285 57,51.390952 L 57,38.609049 C 57,37.76715 56.209388,37 55.346169,37 Z" />
  <path
     style="fill:#c0956e"
     inkscape:connector-curvature="0"
     id="path12"
     d="m 31,28 0,3 -14,0 0,5 2,0 0,-3 26,0 0,3 2,0 0,-5 -14,0 0,-3 z"
     sodipodi:nodetypes="ccccccccccccc" />
</svg>

<svg xmlns="http://www.w3.org/2000/svg" viewBox="0 0 64 64">
 <path d="m 22.48 11 c -0.807 0.083 -1.484 0.822 -1.48 1.613 l 0 12.775 c 0 0.846 0.787 1.613 1.654 1.613 l 18.692 0 c 0.867 0 1.654 -0.767 1.654 -1.613 l 0 -12.775 c 0 -0.846 -0.787 -1.613 -1.654 -1.613" style="fill:#c0956e"/>
 <path d="m 9.48 37 c -0.807 0.083 -1.484 0.818 -1.48 1.609 l 0 12.782 c 0 0.842 0.787 1.609 1.654 1.609 l 18.692 0 c 0.867 0 1.654 -0.767 1.654 -1.609 l 0 -12.782 c 0 -0.842 -0.787 -1.609 -1.654 -1.609" style="fill:#c0956e"/>
 <path d="m 36.48 37 c -0.807 0.083 -1.484 0.818 -1.48 1.609 l 0 12.782 c 0 0.842 0.787 1.609 1.65 1.609 l 18.696 0 c 0.863 0 1.654 -0.767 1.654 -1.609 l 0 -12.782 c 0 -0.842 -0.791 -1.609 -1.654 -1.609" style="fill:#c0956e"/>
 <path d="m 31 28 0 3 -14 0 0 5 2 0 0 -3 26 0 0 3 2 0 0 -5 -14 0 0 -3 z" style="fill:#c0956e"/>
</svg>
